img/icon_youtube_dark_blue.svg

<svg width="46" height="48" fill="none" xmlns="http://www.w3.org/2000/svg"><path fill="#5496BD" d="M0 0h46v48H0z"/><path fill-rule="evenodd" clip-rule="evenodd" d="M16 16h14c1.65 0 3 1.35 3 3v10c0 1.65-1.35 3-3 3H16c-1.65 0-3-1.35-3-3V19c0-1.65 1.35-3 3-3zm3.027 4.002v7.996L28.014 24l-8.987-3.998z" fill="#fff" opacity=".3"/></svg>

<svg width="46" height="48" viewBox="0 0 46 48" fill="none" xmlns="http://www.w3.org/2000/svg">
<rect width="46" height="48" fill="#5496BD"/>
<g opacity="0.3">
<path fill-rule="evenodd" clip-rule="evenodd" d="M16 16H30C31.65 16 33 17.35 33 19V29C33 30.65 31.65 32 30 32H16C14.35 32 13 30.65 13 29V19C13 17.35 14.35 16 16 16ZM19.027 20.002V27.998L28.014 24L19.027 20.002Z" fill="white"/>
</g>
</svg>
